symbols-de/shields/motorway_3x4_z18.svg

<?xml version="1.0" encoding="UTF-8" standalone="no"?>
<svg
   xmlns:dc="http://purl.org/dc/elements/1.1/"
   xmlns:cc="http://creativecommons.org/ns#"
   xmlns:rdf="http://www.w3.org/1999/02/22-rdf-syntax-ns#"
   xmlns:svg="http://www.w3.org/2000/svg"
   xmlns="http://www.w3.org/2000/svg"
   xmlns:sodipodi="http://sodipodi.sourceforge.net/DTD/sodipodi-0.dtd"
   xmlns:inkscape="http://www.inkscape.org/namespaces/inkscape"
   width="100%"
   height="100%"
   viewBox="0 0 31.0 50.0"
   id="svg2"
   version="1.1"
   inkscape:version="0.91 r13725"
   sodipodi:docname="autobahn_3x4_z18.svg">
  <metadata
     id="metadata9">
    <rdf:RDF>
      <cc:Work
         rdf:about="">
        <dc:format>image/svg+xml</dc:format>
        <dc:type
           rdf:resource="http://purl.org/dc/dcmitype/StillImage" />
        <dc:title></dc:title>
      </cc:Work>
    </rdf:RDF>
  </metadata>
  <defs
     id="defs7" />
  <sodipodi:namedview
     pagecolor="#ffffff"
     bordercolor="#666666"
     borderopacity="1"
     objecttolerance="10"
     gridtolerance="10"
     guidetolerance="10"
     inkscape:pageopacity="0"
     inkscape:pageshadow="2"
     inkscape:window-width="921"
     inkscape:window-height="628"
     id="namedview5"
     showgrid="false"
     inkscape:zoom="4.72"
     inkscape:cx="15.5"
     inkscape:cy="25"
     inkscape:window-x="318"
     inkscape:window-y="165"
     inkscape:window-maximized="0"
     inkscape:current-layer="svg2" />
  <path
     style="fill:#365eaf;fill-opacity:1;stroke:#0528a2;stroke-width:1;stroke-miterlimit:4;stroke-dasharray:none;stroke-opacity:1"
     d="m 15.499999,0.50000114 c -0.215052,0 -0.322265,0.003942 -0.322265,0.0140064 L 0.98452566,2.6288117 c -0.32258141,0.101406 -0.48452568,0.2546948 -0.48452568,0.4575071 0,14.6091222 0,29.2182432 0,43.8273662 0,0.202809 0.1619432,0.356103 0.48452568,0.457506 L 15.177734,49.485996 c 0,0.01013 0.107215,0.014 0.322265,0.014 0.215054,0 0.322266,-0.0039 0.322266,-0.014 l 14.193208,-2.114805 c 0.322582,-0.101408 0.484526,-0.254697 0.484526,-0.457506 0,-14.609122 0,-29.218244 0,-43.8273662 0,-0.2028123 -0.161944,-0.3561033 -0.484526,-0.4575071 L 15.822265,0.51400632 c 0,-0.0101593 -0.107215,-0.0140064 -0.322266,-0.0140064 z"
     id="path6"
     inkscape:connector-curvature="0"
     sodipodi:nodetypes="sccccccsccccccs" />
</svg>

<?xml version="1.0" encoding="UTF-8"?>
<svg xmlns="http://www.w3.org/2000/svg" xmlns:xlink="http://www.w3.org/1999/xlink" width="30pt" height="66pt" viewBox="0 0 30 66" version="1.1">
<g id="surface1">
<path style="fill-rule:nonzero;fill:rgb(21.176471%,36.862745%,68.627451%);fill-opacity:1;stroke-width:1;stroke-linecap:butt;stroke-linejoin:miter;stroke:rgb(1.960784%,15.686275%,63.529412%);stroke-opacity:1;stroke-miterlimit:4;" d="M 15.5 0.500118 C 15.286068 0.500118 15.177083 0.503078 15.177083 0.514915 L 0.984896 2.627841 C 0.661979 2.731416 0.500521 2.882339 0.500521 3.086529 C 0.500521 17.696496 0.500521 32.303504 0.500521 46.913471 C 0.500521 47.117661 0.661979 47.268584 0.984896 47.372159 L 15.177083 49.485085 C 15.177083 49.496922 15.286068 49.499882 15.5 49.499882 C 15.713932 49.499882 15.822917 49.496922 15.822917 49.485085 L 30.015104 47.372159 C 30.338021 47.268584 30.499479 47.117661 30.499479 46.913471 C 30.499479 32.303504 30.499479 17.696496 30.499479 3.086529 C 30.499479 2.882339 30.338021 2.731416 30.015104 2.627841 L 15.822917 0.514915 C 15.822917 0.503078 15.713932 0.500118 15.5 0.500118 Z M 15.5 0.500118 " transform="matrix(0.967742,0,0,1.32,0,0)"/>
</g>
</svg>
